X:410
T:Sailor's Wife, The
R:jig
C:Niel Gow (1727-1807)
S:Annsofi Jonsson
A:Scotland
Z:hn-jig-410
M:6/8
L:1/8
K:Dm
DEF E2D | d2e f2g | agf edc | AcA GEC |
DEF E2D | d2e f2g | agf ed^c |1 d3 D3 :|2 d3 D2e ||
|: fga fga | fga agf | ecg ecg | ece gfe |
fga agf | efg gfe | def ed^c |1 d3 D2e :|2 d3 D3 ||

